X:1
T:George Skene Duff, of Milton
T:George Skene Duff, of Milton
T:William Marshall
C:William Marshall
%%score { ( 1 2 ) 3 }
L:1/8
M:2/2
K:C
V:1 treble 
V:2 treble 
V:3 bass 
V:1
 B | c2 ce c2 ce | c2 (ec) dDDB | c2 (cG) cagf | ecdB cCCB | c2 ce c2 ce | [Ec]2 (ec) dDDB | %7
 c2 (cG) cagf | ecdB cCC |] F | (E/F/G) (cG) EcGc | EcGc dDDF | (E/F/G) (cG) EcGe | %13
 [Af]a[Bg]>f e<c-c>G | (E/F/G) (cG) EcGc | EcGc dDDf | [ca]f[cg]e [Gf]d[Ge]c | %17
 [Fc]A [B,G]>F TE>DC |] %18
V:2
 x | E4 E4 | x8 | x8 | G2 F2 E2 x2 | E4 E4 | x8 | x8 | G2 F2 E2 x |] x | x8 | x8 | x8 | x8 | x8 | %15
 x8 | x8 | x7 |] %18
V:3
 z | [cgc']2 [cgc']2 [cgc']2 [cgc']2 | [cgc']2 [cgc']2 [Gg]2 [Gg]2 | %3
 [cgc']2 [cgc']2 [fac']2 [fac']2 | [Gg]2 [Gg]2 [Cc]2 [Cc]2 | [cgc']2 [cgc']2 [cgc']2 [cgc']2 | %6
 [cgc']2 [cgc']2 [Gg]2 [Gg]2 | [cgc']2 [cgc']2 [fac']2 [ec']f | [Gg]2 [Gg]2 [Cc]2 [Cc] |] z | %10
 [Cc]2 [Cc]2 [Cc]2 [Cc]2 | [Cc]2 [Cc]2 [Gg]2 [Gg]2 | [Cc]2 [Cc]2 [Cc]2 [Cc]2 | %13
 [Ff]2 [Gg]2 [Cc]2 [Cc]2 | [Cc]2 [Cc]2 [Cc]2 [Cc]2 | [Cc]2 [Cc]2 [Gg]2 [Gg] z | %16
 [Ff]2 [Ee]2 [Bb]2 [Cc]2 | [Ff]2 [Gg]2 [Cc]2 [Cc] |] %18

